StripeUICore/StripeUICore/Resources/StripeUICore.xcassets/brand_stripe.imageset/brand_stripe.svg

<svg fill="none" height="24" viewBox="0 0 24 24" width="24" xmlns="http://www.w3.org/2000/svg" xmlns:xlink="http://www.w3.org/1999/xlink"><clipPath id="a"><path d="m0 0h24v24h-24z"/></clipPath><g clip-path="url(#a)"><path clip-rule="evenodd" d="m0 0h24v24h-24z" fill="#6772e5" fill-rule="evenodd"/><path d="m10.9199 9.24744c0-.585.48-.81 1.275-.81 1.14 0 2.5725.345 3.7125.96v-3.525c-1.245-.4875-2.475-.6825-3.7125-.6825-3.03745 0-5.06245 1.5825-5.06245 4.2375 0 4.12496 5.69245 3.47246 5.69245 5.24996 0 .69-.6.915-1.44.915-1.2375 0-2.82745-.51-4.08745-1.2v3.5625c1.395.6 2.80495.855 4.08745.855 3.1125 0 5.25-1.5375 5.25-4.2225-.0075-4.455-5.715-3.6675-5.715-5.33996z" fill="#fff"/></g></svg>

<svg width="24" height="24" viewBox="0 0 24 24" fill="none" xmlns="http://www.w3.org/2000/svg">
<g clip-path="url(#clip0_7_69)">
<path fill-rule="evenodd" clip-rule="evenodd" d="M0 0H24V24H0V0Z" fill="#6772E5"/>
<path d="M10.9199 9.24744C10.9199 8.66244 11.3999 8.43744 12.1949 8.43744C13.3349 8.43744 14.7674 8.78244 15.9074 9.39744V5.87244C14.6624 5.38494 13.4324 5.18994 12.1949 5.18994C9.15745 5.18994 7.13245 6.77244 7.13245 9.42744C7.13245 13.5524 12.8249 12.8999 12.8249 14.6774C12.8249 15.3674 12.2249 15.5924 11.3849 15.5924C10.1474 15.5924 8.55745 15.0824 7.29745 14.3924V17.9549C8.69245 18.5549 10.1024 18.8099 11.3849 18.8099C14.4974 18.8099 16.6349 17.2724 16.6349 14.5874C16.6274 10.1324 10.9199 10.9199 10.9199 9.24744Z" fill="white"/>
</g>
<defs>
<clipPath id="clip0_7_69">
<rect width="24" height="24" fill="white"/>
</clipPath>
</defs>
</svg>
